X: 132177
T: Millstreet Slide
N: 234
C: BB 10/06
L: 1/8
M: 12/8
R: slide
Q: 1/8=380
K: D
E |"D"DEF AFA "Em"B2E EFE | "D"DFA def "Em"e2B BAB |
"D"d2f "A"c2e "Bm"BAB dAF |1 "G"GFG B2A "A"F2A G2 :|\
[2 "G"GFG B2d "A"AFE "D"D2 ||
e | "Bm"f2B Bcd "A"e2A Ace | "Bm"f2d "Em"g2e "A"age cBA |
"Bm"f2B Bcd "A"e2A Ace  | "D"def "Em"g2b "A"edc "D"d2 :|
